X: 1
T: Steppin' Out
O: American
S: page from Terry Traub dates 4/3/96
Z: 2013 John Chambers <jc:trillian.mit.edu>
M: C
L: 1/8
P: Play: I,AA,B,A, rhythm only for AA,B,A, silence for AA,B, melody on A.
K: Dm
%%indent 300
"^Intro"|\
"Dm"A3 B A2 G2 | "A7"F2 E2 "Dm"D2 z2 ||
"A"|:\
"Dm"D2 F2 A3 A | "Bbdim"G2 FG- "A7"GA3 |\
"Dm"D2 F2 A3 A | "Bbdim"G2 FG- "A7"G3A |
"Dm"D2 F2 A3 A | "Bbdim"G2 FG- "A7"GA3 |\
"Dm"D2 F2 A3 G | "A7"A>G FD- "Dm"D2 !fine!z2 :|
K: D
"B"[|\
"D"d3 c- cB A2 | "D"B2 AF- FE D2 |\
"D"F z2 F- F4 | "D"F z2 F- F4 |
"D"d3 c- cB A2 | "D"B2 AF- FE D2 |\
"E"E z2 E- E4 | "A7"E z2 E- E2 "^d.C."z2 |]
